svg/invoice_fast.svg

<svg xmlns="http://www.w3.org/2000/svg" viewBox="0 0 24 24"><path d="M22 5H7v16l2.5-1.68L12 21l2.5-1.68L17 21l2.5-1.68L22 21zM2 8c0-.6.4-1 1-1h2v2H3c-.6 0-1-.4-1-1m-1 4c0-.6.4-1 1-1h3v2H2c-.6 0-1-.4-1-1m-1 4c0-.6.4-1 1-1h4v2H1c-.6 0-1-.4-1-1"/></svg>

<svg xmlns="http://www.w3.org/2000/svg" id="mdi-invoice-fast" viewBox="0 0 24 24"><path d="M22 5H7V21L9.5 19.32L12 21L14.5 19.32L17 21L19.5 19.32L22 21V5M2 8C2 7.4 2.4 7 3 7H5V9H3C2.4 9 2 8.6 2 8M1 12C1 11.4 1.4 11 2 11H5V13H2C1.4 13 1 12.6 1 12M0 16C0 15.4 .4 15 1 15H5V17H1C.4 17 0 16.6 0 16Z" /></svg>
